!!!OTL: Zhai cha
!!!ARE: Asia, China,ÿJiangxi, Ganxian
!! IV, 248
!!!SCT: C1685
!!!YEM: Copyright 1995, estate of Helmut Schaffrath.
**kern
*ICvox
*Ivox
!! Mixed meters:  2/4; 1/4
*M1/4
*k[b-e-]
*B-:
{4ff
16gg
16bb-
16gg
16ff
=1
2dd
=2
8ddd
16ccc
16ddd
16fff
16ggg
16ddd
16ccc
=3
2bb-}
=4
{8ff
16gg
16ff
4dd
=5
8ff
16gg
16ff
4dd
=6
8ddd
16ccc
16ddd
16fff
16ggg
16ddd
16ccc
=7
2bb-}
=8
{16gg
16bb-
16ff
16gg
8.bb-
16gg
=9
16bb-
16gg
4bb-
8ccc
=10
16ddd
16fff
16ggg
16fff
4ddd}
=11
{16ddd
16fff
16ggg
16fff
8.ddd
16ccc
=12
8.bb-
16ccc
16ddd
16fff
16fff
16ddd
=13
16ccc
16bb-
4.ccc}
=14
{16gg
16bb-
8ff
16gg
16bb-
16ff
16gg
=15
8.bb-
16gg
4bb-
=16
16ddd
16fff
16ddd
16ccc
16bb-
16ccc
16ddd
16fff
=17
8.ccc
16bb-
4ccc}
=18
{8ff
16gg
16ff
4dd
=19
8ff
16gg
16ff
4dd
=20
8ddd
16ccc
16ddd
16fff
16ggg
16ddd
16ccc
=21
2bb-}
=22
{16gg
16bb-
8ff
16gg
16bb-
16ff
16gg
=23
8.bb-
16gg
4bb-
=24
16ddd
16fff
16ddd
16ccc
16bb-
16ccc
16ddd
16fff
=25
8.ccc
16bb-
4ccc}
=26
{8ff
16gg
16ff
4dd
=27
8ff
16gg
16ff
4dd
=28
8ddd
16ccc
16ddd
16fff
16ggg
16ddd
16ccc
=29
2bb-}
=30
{16gg
16bb-
16ff
16ff
16gg
16bb-
16ff
16gg
=31
8.bb-
16gg
4bb-
=32
16ddd
16fff
16ddd
16ccc
16bb-
16ccc
16ddd
16fff
=33
4ccc
16ddd
16ccc
16ddd
16fff
=34
2ccc}
=35
{8ff
16gg
16bb-
8ff
8dd
=36
8.bb-
16gg
4ff
=37
8gg
4bb-
8gg
=38
4ff
16dd
16cc
16dd
16gg
=39
4ff}
=40
*M2/4
{8ff
16gg
16bb-
8ff
8dd
=41
8.bb-
16gg
4ff
=42
8gg
4bb-
16ccc
16ddd
=43
8.fff
16ddd
4ccc
=44
16gg
16bb-
16ccc
16ddd
16ccc
16bb-
8gg
=45
8ff
8dd
4ff}
==
!!!AGN: Wuge, Caicha, chunjing tian
!!!AMT: irregular
!!!AIN: vox
!!!EED: Helmut Schaffrath
!!!EEV: 1.0
*-
